X:167
T:Johnny Allen's
Z: id:dc-reel-154
M:C
L:1/8
K:D Mixolydian
FG|A2BG AGFD|EccB cdcB|A2BG AGFG|DGGF G2FG|!
A2BG AGFG|Adde f2fg|afge fde^c|dcAF|G2:|!
FG|A3g fde^c|Add2 AddB|A3g fde^c|dcAF G2FG|!
A3g fde^c|Adde f2fg|afge fde^c|dcAF|G2:|!

